src/packages/tokens/img/eth.svg

<svg width="24" height="24" viewBox="0 0 24 24" fill="none" xmlns="http://www.w3.org/2000/svg">
<g clip-path="url(#clip0_8_2922)">
<circle cx="12" cy="12" r="12" fill="#EDEFF0"/>
<path opacity="0.6" d="M11.9965 15.6612L17.76 12.1774L11.9965 9.50244L6.23999 12.1774L11.9965 15.6612Z" fill="black"/>
<path opacity="0.45" d="M11.9965 9.50245V2.40002L6.23999 12.1774L11.9965 15.6612V9.50245Z" fill="black"/>
<path opacity="0.8" d="M11.9966 15.6612L17.7601 12.1774L11.9966 2.40002V9.50245V15.6612Z" fill="black"/>
<path opacity="0.45" d="M11.9965 16.7752L6.23999 13.2985L11.9965 21.6V16.7752Z" fill="black"/>
<path opacity="0.8" d="M17.7601 13.2985L11.9966 16.7752V21.6L17.7601 13.2985Z" fill="black"/>
</g>
<defs>
<clipPath id="clip0_8_2922">
<rect width="24" height="24" fill="white"/>
</clipPath>
</defs>
</svg>

<svg xmlns="http://www.w3.org/2000/svg" width="24" height="24" fill="none" xmlns:v="https://vecta.io/nano"><g clip-path="url(#A)"><circle cx="12" cy="12" r="12" fill="#edeff0"/><g fill="#000"><path opacity=".6" d="M11.997 15.661l5.764-3.484-5.764-2.675-5.757 2.675 5.757 3.484z"/><path opacity=".45" d="M11.997 9.502V2.4L6.24 12.177l5.757 3.484V9.502z"/><path opacity=".8" d="M11.997 15.661l5.764-3.484L11.997 2.4v7.102 6.159z"/><path opacity=".45" d="M11.997 16.775L6.24 13.299l5.757 8.302v-4.825z"/><path opacity=".8" d="M17.76 13.299l-5.764 3.477V21.6l5.764-8.301z"/></g></g><defs><clipPath id="A"><path fill="#fff" d="M0 0h24v24H0z"/></clipPath></defs></svg>
